static/img/logo.svg

<svg width="144" height="44" viewBox="0 0 144 44" fill="none" xmlns="http://www.w3.org/2000/svg">
<path d="M62.776 30.362L60.55 39H59.29L56.56 29.2H57.568L59.92 37.838L62.16 29.2H63.42L65.8 37.852L68.04 29.2H69.02L66.43 39H65.17L62.776 30.362ZM70.9062 32H71.8302V39H70.9062V32ZM71.3682 30.768C71.1815 30.768 71.0228 30.7073 70.8922 30.586C70.7708 30.4553 70.7102 30.2967 70.7102 30.11C70.7102 29.9233 70.7708 29.7693 70.8922 29.648C71.0228 29.5173 71.1815 29.452 71.3682 29.452C71.5548 29.452 71.7088 29.5173 71.8302 29.648C71.9608 29.7693 72.0262 29.9233 72.0262 30.11C72.0262 30.2967 71.9608 30.4553 71.8302 30.586C71.7088 30.7073 71.5548 30.768 71.3682 30.768ZM76.5042 35.738L75.2722 37.194V39H74.3482V29.2H75.2722V35.934L78.5202 32H79.6682L77.1202 35.066L79.9482 39H78.8002L76.5042 35.738ZM81.6249 32H82.5489V39H81.6249V32ZM82.0869 30.768C81.9003 30.768 81.7416 30.7073 81.6109 30.586C81.4896 30.4553 81.4289 30.2967 81.4289 30.11C81.4289 29.9233 81.4896 29.7693 81.6109 29.648C81.7416 29.5173 81.9003 29.452 82.0869 29.452C82.2736 29.452 82.4276 29.5173 82.5489 29.648C82.6796 29.7693 82.7449 29.9233 82.7449 30.11C82.7449 30.2967 82.6796 30.4553 82.5489 30.586C82.4276 30.7073 82.2736 30.768 82.0869 30.768Z" fill="white"/>
<path d="M57.54 6.6H62.82C64.888 6.6 66.3913 7.04 67.33 7.92C68.2833 8.78533 68.76 10.0393 68.76 11.682C68.76 13.222 68.2613 14.454 67.264 15.378C66.2667 16.302 64.7853 16.764 62.82 16.764H60.18V22H57.54V6.6ZM60.18 8.932V14.432H62.82C63.876 14.432 64.668 14.1827 65.196 13.684C65.724 13.1853 65.988 12.518 65.988 11.682C65.988 10.802 65.7313 10.1273 65.218 9.658C64.7193 9.174 63.92 8.932 62.82 8.932H60.18ZM70.7314 6.6H80.6314V8.932H73.3714V12.914H79.3114V15.246H73.3714V19.668H80.6314V22H70.7314V6.6ZM86.584 11.88L85.682 9.548V22H83.042V6.6H87.002L90.434 14.938L93.866 6.6H97.782V22H95.142V9.526L94.218 11.88L91.732 17.93H89.092L86.584 11.88ZM107.123 22.198C106.096 22.198 105.157 22.0367 104.307 21.714C103.471 21.3767 102.752 20.9 102.151 20.284C101.564 19.6533 101.109 18.8833 100.787 17.974C100.464 17.0647 100.303 16.0307 100.303 14.872V13.728C100.303 12.584 100.464 11.5573 100.787 10.648C101.124 9.73867 101.586 8.976 102.173 8.36C102.774 7.72933 103.493 7.24533 104.329 6.908C105.179 6.57067 106.111 6.402 107.123 6.402C108.149 6.402 109.081 6.57067 109.917 6.908C110.767 7.23067 111.486 7.70733 112.073 8.338C112.674 8.96867 113.136 9.73867 113.459 10.648C113.781 11.5427 113.943 12.5693 113.943 13.728V14.872C113.943 16.016 113.774 17.0427 113.437 17.952C113.114 18.8613 112.652 19.6313 112.051 20.262C111.464 20.8927 110.745 21.3767 109.895 21.714C109.059 22.0367 108.135 22.198 107.123 22.198ZM107.123 19.734C108.325 19.734 109.301 19.3307 110.049 18.524C110.797 17.7027 111.171 16.4853 111.171 14.872V13.728C111.171 12.936 111.068 12.2393 110.863 11.638C110.672 11.022 110.393 10.516 110.027 10.12C109.675 9.70933 109.249 9.40133 108.751 9.196C108.252 8.976 107.709 8.866 107.123 8.866C105.905 8.866 104.923 9.27667 104.175 10.098C103.441 10.9047 103.075 12.1147 103.075 13.728V14.872C103.075 16.4707 103.449 17.6807 104.197 18.502C104.959 19.3233 105.935 19.734 107.123 19.734ZM126.372 15.246H119.112V22H116.472V6.6H119.112V12.914H126.372V6.6H129.012V22H126.372V15.246ZM130.881 6.6H142.981V8.932H138.251V22H135.611V8.932H130.881V6.6Z" fill="white"/>
<path d="M41.4219 31.3788V27.2308C41.4219 22.9251 40.0533 18.8327 37.4642 15.3959C35.166 12.3452 31.9883 10.0056 28.4405 8.73163C28.3418 6.65702 26.6472 5 24.5781 5H19.4219C17.3528 5 15.6582 6.65702 15.5595 8.73163C12.0117 10.0056 8.83403 12.3452 6.5358 15.3959C3.94668 18.8327 2.57812 22.9251 2.57812 27.2308V31.3788C1.07774 31.9186 0 33.3721 0 35.0769C0 37.2401 1.73482 39 3.86719 39H40.1328C42.2652 39 44 37.2401 44 35.0769C44 33.3721 42.9223 31.9186 41.4219 31.3788ZM5.15625 27.2308C5.15625 22.5151 7.14192 18.1006 10.3984 14.9511V19.3846C10.3984 20.1068 10.9756 20.6923 11.6875 20.6923C12.3994 20.6923 12.9766 20.1068 12.9766 19.3846V12.8999C13.7888 12.3739 14.6504 11.915 15.5547 11.5331V22C15.5547 22.7222 16.1318 23.3077 16.8438 23.3077C17.5557 23.3077 18.1328 22.7222 18.1328 22V9.70176C18.1329 9.69819 18.1328 9.69462 18.1328 9.69104V8.92308C18.1328 8.20202 18.7111 7.61538 19.4219 7.61538H24.5781C25.2889 7.61538 25.8672 8.20202 25.8672 8.92308V9.69069C25.8672 9.69444 25.8671 9.6981 25.8672 9.70185V22C25.8672 22.7222 26.4443 23.3077 27.1562 23.3077C27.8682 23.3077 28.4453 22.7222 28.4453 22V11.5331C29.3496 11.9151 30.2112 12.374 31.0234 12.8999V19.3846C31.0234 20.1068 31.6006 20.6923 32.3125 20.6923C33.0244 20.6923 33.6016 20.1068 33.6016 19.3846V14.9511C36.8581 18.1006 38.8438 22.5151 38.8438 27.2308V31.1538H5.15625V27.2308ZM40.1328 36.3846H3.86719C3.1564 36.3846 2.57812 35.798 2.57812 35.0769C2.57812 34.3559 3.1564 33.7692 3.86719 33.7692H40.1328C40.8436 33.7692 41.4219 34.3559 41.4219 35.0769C41.4219 35.798 40.8436 36.3846 40.1328 36.3846Z" fill="#1795EC"/>
</svg>

<?xml version="1.0" encoding="UTF-8" standalone="no"?><!DOCTYPE svg PUBLIC "-//W3C//DTD SVG 1.1//EN" "http://www.w3.org/Graphics/SVG/1.1/DTD/svg11.dtd"><svg width="100%" height="100%" viewBox="0 0 144 44" version="1.1" xmlns="http://www.w3.org/2000/svg" xmlns:xlink="http://www.w3.org/1999/xlink" xml:space="preserve" xmlns:serif="http://www.serif.com/" style="fill-rule:evenodd;clip-rule:evenodd;stroke-linejoin:round;stroke-miterlimit:2;"><path d="M62.776,30.362l-2.226,8.638l-1.26,0l-2.73,-9.8l1.008,0l2.352,8.638l2.24,-8.638l1.26,0l2.38,8.652l2.24,-8.652l0.98,0l-2.59,9.8l-1.26,0l-2.394,-8.638Zm8.13,1.638l0.924,0l0,7l-0.924,0l0,-7Zm0.462,-1.232c-0.187,0 -0.345,-0.061 -0.476,-0.182c-0.121,-0.131 -0.182,-0.289 -0.182,-0.476c0,-0.187 0.061,-0.341 0.182,-0.462c0.131,-0.131 0.289,-0.196 0.476,-0.196c0.187,0 0.341,0.065 0.462,0.196c0.131,0.121 0.196,0.275 0.196,0.462c0,0.187 -0.065,0.345 -0.196,0.476c-0.121,0.121 -0.275,0.182 -0.462,0.182Zm5.136,4.97l-1.232,1.456l0,1.806l-0.924,0l0,-9.8l0.924,0l0,6.734l3.248,-3.934l1.148,0l-2.548,3.066l2.828,3.934l-1.148,0l-2.296,-3.262Zm5.121,-3.738l0.924,0l0,7l-0.924,0l0,-7Zm0.462,-1.232c-0.187,0 -0.345,-0.061 -0.476,-0.182c-0.121,-0.131 -0.182,-0.289 -0.182,-0.476c0,-0.187 0.061,-0.341 0.182,-0.462c0.131,-0.131 0.289,-0.196 0.476,-0.196c0.187,0 0.341,0.065 0.462,0.196c0.131,0.121 0.196,0.275 0.196,0.462c0,0.187 -0.065,0.345 -0.196,0.476c-0.121,0.121 -0.275,0.182 -0.462,0.182Z" style="fill:#fff;fill-rule:nonzero;"/><path d="M57.54,6.6l5.28,0c2.068,0 3.571,0.44 4.51,1.32c0.953,0.865 1.43,2.119 1.43,3.762c0,1.54 -0.499,2.772 -1.496,3.696c-0.997,0.924 -2.479,1.386 -4.444,1.386l-2.64,0l0,5.236l-2.64,0l0,-15.4Zm2.64,2.332l0,5.5l2.64,0c1.056,0 1.848,-0.249 2.376,-0.748c0.528,-0.499 0.792,-1.166 0.792,-2.002c0,-0.88 -0.257,-1.555 -0.77,-2.024c-0.499,-0.484 -1.298,-0.726 -2.398,-0.726l-2.64,0Zm10.551,-2.332l9.9,0l0,2.332l-7.26,0l0,3.982l5.94,0l0,2.332l-5.94,0l0,4.422l7.26,0l0,2.332l-9.9,0l0,-15.4Zm15.853,5.28l-0.902,-2.332l0,12.452l-2.64,0l0,-15.4l3.96,0l3.432,8.338l3.432,-8.338l3.916,0l0,15.4l-2.64,0l0,-12.474l-0.924,2.354l-2.486,6.05l-2.64,0l-2.508,-6.05Zm20.539,10.318c-1.027,0 -1.966,-0.161 -2.816,-0.484c-0.836,-0.337 -1.555,-0.814 -2.156,-1.43c-0.587,-0.631 -1.042,-1.401 -1.364,-2.31c-0.323,-0.909 -0.484,-1.943 -0.484,-3.102l0,-1.144c0,-1.144 0.161,-2.171 0.484,-3.08c0.337,-0.909 0.799,-1.672 1.386,-2.288c0.601,-0.631 1.32,-1.115 2.156,-1.452c0.85,-0.337 1.782,-0.506 2.794,-0.506c1.026,0 1.958,0.169 2.794,0.506c0.85,0.323 1.569,0.799 2.156,1.43c0.601,0.631 1.063,1.401 1.386,2.31c0.322,0.895 0.484,1.921 0.484,3.08l0,1.144c0,1.144 -0.169,2.171 -0.506,3.08c-0.323,0.909 -0.785,1.679 -1.386,2.31c-0.587,0.631 -1.306,1.115 -2.156,1.452c-0.836,0.323 -1.76,0.484 -2.772,0.484Zm0,-2.464c1.202,0 2.178,-0.403 2.926,-1.21c0.748,-0.821 1.122,-2.039 1.122,-3.652l0,-1.144c0,-0.792 -0.103,-1.489 -0.308,-2.09c-0.191,-0.616 -0.47,-1.122 -0.836,-1.518c-0.352,-0.411 -0.778,-0.719 -1.276,-0.924c-0.499,-0.22 -1.042,-0.33 -1.628,-0.33c-1.218,0 -2.2,0.411 -2.948,1.232c-0.734,0.807 -1.1,2.017 -1.1,3.63l0,1.144c0,1.599 0.374,2.809 1.122,3.63c0.762,0.821 1.738,1.232 2.926,1.232Zm19.249,-4.488l-7.26,0l0,6.754l-2.64,0l0,-15.4l2.64,0l0,6.314l7.26,0l0,-6.314l2.64,0l0,15.4l-2.64,0l0,-6.754Zm4.509,-8.646l12.1,0l0,2.332l-4.73,0l0,13.068l-2.64,0l0,-13.068l-4.73,0l0,-2.332Z" style="fill:#fff;fill-rule:nonzero;"/><path d="M40,0c2.208,0 4,1.792 4,4l0,36c0,2.208 -1.792,4 -4,4l-36,0c-2.208,0 -4,-1.792 -4,-4l0,-36c0,-2.208 1.792,-4 4,-4l36,0Zm-16.008,9l-3.984,0c-1.599,0 -2.908,1.267 -2.985,2.854c-2.741,0.974 -5.197,2.763 -6.973,5.096c-2,2.628 -3.058,5.758 -3.058,9.05l0,3.172c-1.159,0.413 -1.992,1.524 -1.992,2.828c0,1.654 1.341,3 2.988,3l28.024,0c1.647,0 2.988,-1.346 2.988,-3c0,-1.304 -0.833,-2.415 -1.992,-2.828l0,-3.172c0,-3.293 -1.058,-6.422 -3.058,-9.05c-1.776,-2.333 -4.232,-4.122 -6.973,-5.096c-0.077,-1.587 -1.386,-2.854 -2.985,-2.854Zm12.02,24l-28.024,0c-0.549,0 -0.996,-0.449 -0.996,-1c0,-0.551 0.447,-1 0.996,-1l28.024,0c0.549,0 0.996,0.449 0.996,1c0,0.551 -0.447,1 -0.996,1Zm-17,-21c0,-0.551 0.447,-1 0.996,-1l3.984,0c0.549,0 0.996,0.449 0.996,1l0,10c0,0.552 0.446,1 0.996,1c0.55,0 0.996,-0.448 0.996,-1l0,-8.004c0.699,0.292 1.365,0.643 1.993,1.045l0,4.959c0,0.552 0.446,1 0.996,1c0.55,0 0.996,-0.448 0.996,-1l0,-3.39c2.516,2.408 4.051,5.784 4.051,9.39l0,3l-26.032,0l0,-3c0,-3.606 1.535,-6.982 4.051,-9.39l0,3.39c0,0.552 0.446,1 0.996,1c0.55,0 0.996,-0.448 0.996,-1l0,-4.959c0.628,-0.402 1.294,-0.753 1.992,-1.045l0,8.004c0,0.552 0.446,1 0.997,1c0.55,0 0.996,-0.448 0.996,-1l0,-10Z" style="fill:#fff;"/></svg>
